X:710
T:The Broken Pledge
M:4/4
L:1/8
K:Dm
dcA^G AD D2|cAGF EGCE|D2 (3EFG Addc|AcGc Ad^fe|
d^cAG (3ABA d=B|c=BcG EGCE|D2 (3EFG Add=B|cAGc AD D2 :|
dcA^G A2 de|fAdf edc=B|cAGE GAcd|ec c2 eage|
dcA^G A2 de|fAdf edcA|F2 (3GFE FAcd|cAGC ED D2 :|
